X: 1
T: Riders of Rohan
R: air
M: 4/4
L: 1/8
K: Ador
|f2 a4 B2 |
| B2 G4 G/B/c  | d4 A- A/A/d/e/ | e4 c3-/c/e/ | e2 G2 F3 G |
| G2 E4 - E/E/A/B/ | c2 B2 A3 A/B/ | A4 


